src/16/actions/distribute-horizontal-baseline.svg

<svg xmlns="http://www.w3.org/2000/svg" viewBox="0 0 16 16">
  <defs id="defs3051">
    <style type="text/css" id="current-color-scheme">
      .ColorScheme-Text {
        color:#5d656b;
      }
      </style>
  </defs>
 <path style="fill:currentColor;fill-opacity:1;stroke:none" 
       d="M 5 2 L 2 4 L 5 6 L 5 2 z M 6 2 L 6 6 L 9 4 L 6 2 z M 4.3203125 7 C 3.4527252 7.0182 2.7869722 7.1551085 2.3027344 7.3554688 L 2.5742188 8.2558594 C 2.8062466 8.1829593 3.6847187 7.9296875 4.1992188 7.9296875 L 4.2695312 7.9296875 C 4.9857971 7.9569875 5.0371094 8.1924961 5.0371094 8.7480469 L 5.0371094 8.9667969 L 4.6640625 9.0214844 C 2.9288769 9.2491747 2 9.4403865 2 10.642578 C 2 11.480469 2.6757301 12 3.6542969 12 C 4.3302094 12 4.774551 11.744517 5.2285156 11.398438 L 5.3691406 11.908203 L 6.4394531 11.908203 L 6.4394531 8.5390625 C 6.4394531 7.5099211 5.652001 7 4.4414062 7 L 4.3203125 7 z M 9.5234375 7 C 9.5234375 8.42386 10.528776 9.6025519 11.285156 10.326172 C 10.386066 11.239492 9.27789 11.65197 7.25 12 L 7.4570312 13 C 11.977561 12.22418 14 9.38164 14 7 L 12.892578 7 C 12.892578 7.69264 12.542719 9.0299619 11.943359 9.5449219 C 11.331519 8.9651119 10.591952 8.067795 10.414062 7.015625 L 9.5234375 7 z M 5.0371094 9.6777344 L 5.0371094 10.796875 C 4.663851 11.024565 4.3807222 11.189453 3.8964844 11.189453 C 3.4626907 11.189453 3.25 10.943737 3.25 10.597656 C 3.25 9.9419156 3.8872615 9.832602 4.6640625 9.7324219 L 5.0371094 9.6777344 z "
     class="ColorScheme-Text"
     />
</svg>

<svg xmlns="http://www.w3.org/2000/svg" viewBox="0 0 16 16"><path d="M5 2L2 4l3 2V2zm1 0v4l3-2-3-2zM4.32 7c-.867.018-1.533.155-2.017.355l.271.9c.232-.072 1.11-.325 1.625-.325h.07c.717.027.768.262.768.818v.219l-.373.054C2.93 9.25 2 9.441 2 10.643 2 11.48 2.676 12 3.654 12c.676 0 1.12-.255 1.575-.602l.14.51h1.07V8.54C6.44 7.51 5.652 7 4.441 7h-.12zm5.203 0c0 1.424 1.006 2.603 1.762 3.326-.899.913-2.007 1.326-4.035 1.674l.207 1C11.977 12.224 14 9.382 14 7h-1.107c0 .693-.35 2.03-.95 2.545-.611-.58-1.351-1.477-1.529-2.53L9.524 7zM5.037 9.678v1.119c-.373.228-.656.392-1.14.392-.434 0-.647-.245-.647-.591 0-.656.637-.765 1.414-.866l.373-.054z" fill="currentColor" color="#5d656b"/></svg>
